build/documents/InvoiceSolid.svg

<svg xmlns="http://www.w3.org/2000/svg" fill="none" viewBox="0 0 24 24" focusable="false"><path fill="none" d="M0 0H24V24H0z"/><path fill="#74767B" fill-rule="evenodd" d="M7 3C5.34315 3 4 4.34315 4 6L4 18C4 19.6569 5.34315 21 7 21L17 21C18.6569 21 20 19.6569 20 18L20 9.2997C20 8.47047 19.6568 7.67823 19.0518 7.11108L15.5321 3.81139C14.9761 3.2901 14.2425 3 13.4803 3L7 3ZM18.4025 8.4025C18.623 8.62299 18.4668 8.99999 18.155 8.99999L15.3361 9C14.5982 9 14 8.36191 14 7.57479L14 4.84497C14 4.53316 14.377 4.377 14.5975 4.59748L18.4025 8.4025ZM12 8.34358C12 8.70256 11.709 8.99358 11.35 8.99358L8.64583 8.99357C8.28685 8.99357 7.99583 8.70256 7.99583 8.34357C7.99583 7.98459 8.28685 7.69357 8.64583 7.69357L11.35 7.69358C11.709 7.69358 12 7.98459 12 8.34358ZM8.62822 10.3125C8.24162 10.3125 7.92822 10.6259 7.92822 11.0125L7.92822 16.3C7.92822 16.6866 8.24162 17 8.62822 17L15.3 17C15.6866 17 16 16.6866 16 16.3L16 11.0125C16 10.6259 15.6866 10.3125 15.3 10.3125L8.62822 10.3125ZM14.7 13.0063L9.22822 13.0063L9.22822 11.6125L14.7 11.6125L14.7 13.0063ZM9.22822 14.3062L9.22822 15.7L14.7 15.7L14.7 14.3062L9.22822 14.3062Z"/></svg>

<svg xmlns="http://www.w3.org/2000/svg" fill="none" viewBox="0 0 24 24" focusable="false"><path fill="none" d="M0 0h24v24H0z"/><path fill="#74767B" fill-rule="evenodd" d="M7 3C5.34 3 4 4.34 4 6v12c0 1.65 1.34 3 3 3h10c1.65 0 3-1.35 3-3V9.29c0-.82-.35-1.62-.95-2.18l-3.52-3.3c-.56-.52-1.29-.81-2.05-.81zm11.4 5.4c.22.22.06.6-.25.6h-2.82C14.59 9 14 8.36 14 7.57V4.84c0-.31.37-.47.59-.25zM12 8.34c0 .36-.3.65-.65.65H8.64c-.36 0-.65-.29-.65-.65s.29-.65.65-.65h2.71c.35 0 .65.29.65.65m-3.38 1.97c-.38 0-.7.31-.7.7v5.28c0 .39.32.71.7.71h6.68c.38 0 .7-.32.7-.71v-5.28c0-.39-.32-.7-.7-.7zM14.7 13H9.22v-1.39h5.48zm-5.48 1.3v1.4h5.48v-1.4z"/></svg>
